brand-assets/oxc/oxc-icon-color-light.svg

<svg width="77" height="47" viewBox="0 0 77 47" fill="none" xmlns="http://www.w3.org/2000/svg">
<path d="M44.9165 7.55707C44.9165 8.80648 45.929 9.81894 47.1784 9.81894H55.7606C56.7687 9.81894 57.2728 11.0382 56.5598 11.7491L45.5778 22.731C45.1535 23.1554 44.9144 23.7306 44.9144 24.3316V28.0863C44.9144 29.6481 46.4632 30.7316 47.8333 29.9863C49.2292 29.228 50.5281 28.3103 51.7021 27.2591C52.1674 26.8433 52.8826 26.839 53.3242 27.2828L61.3226 35.2812C61.7643 35.7228 61.7664 36.4401 61.3097 36.8667C55.2436 42.5429 47.0901 46.0197 38.1266 46.0197C29.1631 46.0197 21.0096 42.5429 14.9434 36.8667C14.4867 36.4401 14.4889 35.7228 14.9305 35.2812L22.9289 27.2828C23.3705 26.8412 24.0857 26.8433 24.551 27.2591C25.725 28.3103 27.024 29.228 28.4199 29.9863C29.7921 30.7316 31.3388 29.6481 31.3388 28.0863V24.3316C31.3388 23.7306 31.0997 23.1554 30.6753 22.731L19.6934 11.7491C18.9803 11.036 19.4844 9.81894 20.4926 9.81894H29.0748C30.3242 9.81894 31.3366 8.80648 31.3366 7.55707V1.90022C31.3366 1.27552 31.8429 0.769287 32.4676 0.769287H43.7791C44.4038 0.769287 44.9101 1.27552 44.9101 1.90022V7.55707H44.9165Z" fill="#00F7F1"/>
<mask id="mask0_2002_17446" style="mask-type:alpha" maskUnits="userSpaceOnUse" x="14" y="0" width="48" height="47">
<path d="M44.9165 7.55609C44.9165 8.80551 45.929 9.81797 47.1784 9.81797H55.7606C56.7687 9.81797 57.2728 11.0372 56.5598 11.7481L45.5778 22.73C45.1535 23.1544 44.9144 23.7296 44.9144 24.3306V28.0853C44.9144 29.6471 46.4632 30.7306 47.8333 29.9853C49.2292 29.227 50.5281 28.3093 51.7021 27.2581C52.1674 26.8424 52.8826 26.838 53.3242 27.2818L61.3226 35.2802C61.7643 35.7218 61.7664 36.4392 61.3097 36.8657C55.2436 42.5419 47.0901 46.0187 38.1266 46.0187C29.1631 46.0187 21.0096 42.5419 14.9434 36.8657C14.4867 36.4392 14.4889 35.7218 14.9305 35.2802L22.9289 27.2818C23.3705 26.8402 24.0857 26.8424 24.551 27.2581C25.725 28.3093 27.024 29.227 28.4199 29.9853C29.7921 30.7306 31.3388 29.6471 31.3388 28.0853V24.3306C31.3388 23.7296 31.0997 23.1544 30.6753 22.73L19.6934 11.7481C18.9803 11.0351 19.4844 9.81797 20.4926 9.81797H29.0748C30.3242 9.81797 31.3366 8.80551 31.3366 7.55609V1.89925C31.3366 1.27454 31.8429 0.768311 32.4676 0.768311H43.7791C44.4038 0.768311 44.9101 1.27454 44.9101 1.89925V7.55609H44.9165Z" fill="#D9D9D9"/>
</mask>
<g mask="url(#mask0_2002_17446)">
<g filter="url(#filter0_f_2002_17446)">
<ellipse cx="4.61781" cy="21.5008" rx="4.61781" ry="21.5008" transform="matrix(0 -1 -1 0 59.4985 51.3621)" fill="#93FFFC"/>
</g>
<g filter="url(#filter1_f_2002_17446)">
<ellipse cx="4.61781" cy="21.5008" rx="4.61781" ry="21.5008" transform="matrix(-0.369097 -0.929391 -0.929391 0.369097 77.8701 41.1357)" fill="#00FF79"/>
</g>
<g filter="url(#filter2_f_2002_17446)">
<ellipse cx="19.8014" cy="44.7799" rx="4.61781" ry="21.5008" transform="rotate(-68.3401 19.8014 44.7799)" fill="#0060FF"/>
</g>
<g filter="url(#filter3_f_2002_17446)">
<ellipse cx="46.5276" cy="29.6604" rx="3.71516" ry="6.26821" transform="rotate(-135.197 46.5276 29.6604)" fill="#93FFFC"/>
</g>
<g filter="url(#filter4_f_2002_17446)">
<ellipse cx="48.4426" cy="26.2138" rx="3.71516" ry="6.26821" transform="rotate(-135.197 48.4426 26.2138)" fill="#0060FF"/>
</g>
<g filter="url(#filter5_f_2002_17446)">
<ellipse cx="48.0593" cy="7.06539" rx="3.71516" ry="6.26821" transform="rotate(-135.197 48.0593 7.06539)" fill="#93FFFC"/>
</g>
<g filter="url(#filter6_f_2002_17446)">
<ellipse cx="49.2083" cy="5.53389" rx="3.71516" ry="6.26821" transform="rotate(-135.197 49.2083 5.53389)" fill="#0060FF"/>
</g>
<g filter="url(#filter7_f_2002_17446)">
<ellipse cx="3.71516" cy="6.26821" rx="3.71516" ry="6.26821" transform="matrix(0.709532 -0.704673 -0.704673 -0.709532 31.8413 37.4917)" fill="#93FFFC"/>
</g>
<g filter="url(#filter8_f_2002_17446)">
<ellipse cx="3.71516" cy="6.26821" rx="3.71516" ry="6.26821" transform="matrix(0.709532 -0.704673 -0.704673 -0.709532 29.1602 34.0452)" fill="#0060FF"/>
</g>
<g filter="url(#filter9_f_2002_17446)">
<ellipse cx="3.71516" cy="6.26821" rx="3.71516" ry="6.26821" transform="matrix(0.709532 -0.704673 -0.704673 -0.709532 29.1602 14.1309)" fill="#93FFFC"/>
</g>
<g filter="url(#filter10_f_2002_17446)">
<ellipse cx="3.71516" cy="6.26821" rx="3.71516" ry="6.26821" transform="matrix(0.709532 -0.704673 -0.704673 -0.709532 28.7778 11.8333)" fill="#0060FF"/>
</g>
<g filter="url(#filter11_f_2002_17446)">
<ellipse cx="3.71516" cy="11.949" rx="3.71516" ry="11.949" transform="matrix(0.709532 -0.704673 -0.704673 -0.709532 29.5435 29.4495)" fill="#0060FF"/>
</g>
<g filter="url(#filter12_f_2002_17446)">
<ellipse cx="53.5947" cy="15.2895" rx="3.71516" ry="11.949" transform="rotate(-135.197 53.5947 15.2895)" fill="#00FF79"/>
</g>
<g filter="url(#filter13_f_2002_17446)">
<ellipse cx="4.61781" cy="21.5008" rx="4.61781" ry="21.5008" transform="matrix(0 -1 -1 0 59.4985 53.2769)" fill="#0060FF"/>
</g>
</g>
<path d="M6.91893 0C-2.27936 13.1663 -2.33322 33.5748 6.91893 46.7885H13.1337C3.88372 33.5748 3.93757 13.1663 13.1337 0H6.91893Z" fill="white"/>
<path d="M69.3407 0.000244141H63.126C72.3243 13.1665 72.3781 33.5751 63.126 46.7888H69.3407C78.5907 33.5751 78.5369 13.1665 69.3407 0.000244141Z" fill="white"/>
<defs>
<filter id="filter0_f_2002_17446" x="7.30596" y="32.9354" width="61.3837" height="27.6178" filterUnits="userSpaceOnUse" color-interpolation-filters="sRGB">
<feFlood flood-opacity="0" result="BackgroundImageFix"/>
<feBlend mode="normal" in="SourceGraphic" in2="BackgroundImageFix" result="shape"/>
<feGaussianBlur stdDeviation="4.59556" result="effect1_foregroundBlur_2002_17446"/>
</filter>
<filter id="filter1_f_2002_17446" x="26.9354" y="26.565" width="58.495" height="36.4298" filterUnits="userSpaceOnUse" color-interpolation-filters="sRGB">
<feFlood flood-opacity="0" result="BackgroundImageFix"/>
<feBlend mode="normal" in="SourceGraphic" in2="BackgroundImageFix" result="shape"/>
<feGaussianBlur stdDeviation="4.59556" result="effect1_foregroundBlur_2002_17446"/>
</filter>
<filter id="filter2_f_2002_17446" x="-9.446" y="26.565" width="58.495" height="36.4298" filterUnits="userSpaceOnUse" color-interpolation-filters="sRGB">
<feFlood flood-opacity="0" result="BackgroundImageFix"/>
<feBlend mode="normal" in="SourceGraphic" in2="BackgroundImageFix" result="shape"/>
<feGaussianBlur stdDeviation="4.59556" result="effect1_foregroundBlur_2002_17446"/>
</filter>
<filter id="filter3_f_2002_17446" x="32.1917" y="15.3077" width="28.6718" height="28.7055" filterUnits="userSpaceOnUse" color-interpolation-filters="sRGB">
<feFlood flood-opacity="0" result="BackgroundImageFix"/>
<feBlend mode="normal" in="SourceGraphic" in2="BackgroundImageFix" result="shape"/>
<feGaussianBlur stdDeviation="4.59556" result="effect1_foregroundBlur_2002_17446"/>
</filter>
<filter id="filter4_f_2002_17446" x="34.1067" y="11.8611" width="28.6718" height="28.7055" filterUnits="userSpaceOnUse" color-interpolation-filters="sRGB">
<feFlood flood-opacity="0" result="BackgroundImageFix"/>
<feBlend mode="normal" in="SourceGraphic" in2="BackgroundImageFix" result="shape"/>
<feGaussianBlur stdDeviation="4.59556" result="effect1_foregroundBlur_2002_17446"/>
</filter>
<filter id="filter5_f_2002_17446" x="33.7234" y="-7.2873" width="28.6718" height="28.7055" filterUnits="userSpaceOnUse" color-interpolation-filters="sRGB">
<feFlood flood-opacity="0" result="BackgroundImageFix"/>
<feBlend mode="normal" in="SourceGraphic" in2="BackgroundImageFix" result="shape"/>
<feGaussianBlur stdDeviation="4.59556" result="effect1_foregroundBlur_2002_17446"/>
</filter>
<filter id="filter6_f_2002_17446" x="34.8724" y="-8.8188" width="28.6718" height="28.7055" filterUnits="userSpaceOnUse" color-interpolation-filters="sRGB">
<feFlood flood-opacity="0" result="BackgroundImageFix"/>
<feBlend mode="normal" in="SourceGraphic" in2="BackgroundImageFix" result="shape"/>
<feGaussianBlur stdDeviation="4.59556" result="effect1_foregroundBlur_2002_17446"/>
</filter>
<filter id="filter7_f_2002_17446" x="15.7244" y="16.0735" width="28.6718" height="28.7055" filterUnits="userSpaceOnUse" color-interpolation-filters="sRGB">
<feFlood flood-opacity="0" result="BackgroundImageFix"/>
<feBlend mode="normal" in="SourceGraphic" in2="BackgroundImageFix" result="shape"/>
<feGaussianBlur stdDeviation="4.59556" result="effect1_foregroundBlur_2002_17446"/>
</filter>
<filter id="filter8_f_2002_17446" x="13.0433" y="12.627" width="28.6718" height="28.7055" filterUnits="userSpaceOnUse" color-interpolation-filters="sRGB">
<feFlood flood-opacity="0" result="BackgroundImageFix"/>
<feBlend mode="normal" in="SourceGraphic" in2="BackgroundImageFix" result="shape"/>
<feGaussianBlur stdDeviation="4.59556" result="effect1_foregroundBlur_2002_17446"/>
</filter>
<filter id="filter9_f_2002_17446" x="13.0433" y="-7.2873" width="28.6718" height="28.7055" filterUnits="userSpaceOnUse" color-interpolation-filters="sRGB">
<feFlood flood-opacity="0" result="BackgroundImageFix"/>
<feBlend mode="normal" in="SourceGraphic" in2="BackgroundImageFix" result="shape"/>
<feGaussianBlur stdDeviation="4.59556" result="effect1_foregroundBlur_2002_17446"/>
</filter>
<filter id="filter10_f_2002_17446" x="12.6609" y="-9.58491" width="28.6718" height="28.7055" filterUnits="userSpaceOnUse" color-interpolation-filters="sRGB">
<feFlood flood-opacity="0" result="BackgroundImageFix"/>
<feBlend mode="normal" in="SourceGraphic" in2="BackgroundImageFix" result="shape"/>
<feGaussianBlur stdDeviation="4.59556" result="effect1_foregroundBlur_2002_17446"/>
</filter>
<filter id="filter11_f_2002_17446" x="5.74248" y="0.28667" width="36.0336" height="36.1332" filterUnits="userSpaceOnUse" color-interpolation-filters="sRGB">
<feFlood flood-opacity="0" result="BackgroundImageFix"/>
<feBlend mode="normal" in="SourceGraphic" in2="BackgroundImageFix" result="shape"/>
<feGaussianBlur stdDeviation="4.59556" result="effect1_foregroundBlur_2002_17446"/>
</filter>
<filter id="filter12_f_2002_17446" x="35.5779" y="-2.77705" width="36.0336" height="36.1332" filterUnits="userSpaceOnUse" color-interpolation-filters="sRGB">
<feFlood flood-opacity="0" result="BackgroundImageFix"/>
<feBlend mode="normal" in="SourceGraphic" in2="BackgroundImageFix" result="shape"/>
<feGaussianBlur stdDeviation="4.59556" result="effect1_foregroundBlur_2002_17446"/>
</filter>
<filter id="filter13_f_2002_17446" x="7.30596" y="34.8501" width="61.3837" height="27.6178" filterUnits="userSpaceOnUse" color-interpolation-filters="sRGB">
<feFlood flood-opacity="0" result="BackgroundImageFix"/>
<feBlend mode="normal" in="SourceGraphic" in2="BackgroundImageFix" result="shape"/>
<feGaussianBlur stdDeviation="4.59556" result="effect1_foregroundBlur_2002_17446"/>
</filter>
</defs>
</svg>

<svg xmlns="http://www.w3.org/2000/svg" width="77" height="47" fill="none" viewBox="0 0 77 47"><path fill="#00f7f1" d="M44.917 7.557a2.26 2.26 0 0 0 2.261 2.262h8.583c1.008 0 1.512 1.22.799 1.93L45.578 22.731a2.26 2.26 0 0 0-.664 1.6v3.755c0 1.562 1.55 2.646 2.92 1.9a20.4 20.4 0 0 0 3.868-2.727c.465-.416 1.18-.42 1.622.024l7.999 7.998a1.1 1.1 0 0 1-.013 1.586 33.82 33.82 0 0 1-23.183 9.153c-8.964 0-17.117-3.477-23.184-9.153a1.1 1.1 0 0 1-.012-1.586l7.998-7.998c.442-.442 1.157-.44 1.622-.024a20.4 20.4 0 0 0 3.869 2.727c1.372.746 2.919-.338 2.919-1.9v-3.754c0-.601-.24-1.177-.664-1.601L19.693 11.749c-.713-.713-.209-1.93.8-1.93h8.582a2.26 2.26 0 0 0 2.262-2.262V1.9c0-.624.506-1.13 1.13-1.13H43.78a1.13 1.13 0 0 1 1.13 1.13v5.657z"/><mask id="a" width="48" height="47" x="14" y="0" maskUnits="userSpaceOnUse" style="mask-type:alpha"><path fill="#d9d9d9" d="M44.917 7.556a2.26 2.26 0 0 0 2.261 2.262h8.583c1.008 0 1.512 1.22.799 1.93L45.578 22.73a2.26 2.26 0 0 0-.664 1.6v3.755c0 1.562 1.55 2.646 2.92 1.9a20.4 20.4 0 0 0 3.868-2.727c.465-.416 1.18-.42 1.622.024l7.999 7.998a1.1 1.1 0 0 1-.013 1.586 33.82 33.82 0 0 1-23.183 9.153c-8.964 0-17.117-3.477-23.184-9.153a1.1 1.1 0 0 1-.012-1.586l7.998-7.998c.442-.442 1.157-.44 1.622-.024a20.4 20.4 0 0 0 3.869 2.727c1.372.746 2.919-.338 2.919-1.9v-3.754c0-.601-.24-1.177-.664-1.601L19.693 11.748c-.713-.713-.209-1.93.8-1.93h8.582a2.26 2.26 0 0 0 2.262-2.262V1.9c0-.624.506-1.13 1.13-1.13H43.78a1.13 1.13 0 0 1 1.131 1.13v5.657z"/></mask><g mask="url(#a)"><g filter="url(#b)"><ellipse cx="4.618" cy="21.501" fill="#93fffc" rx="4.618" ry="21.501" transform="matrix(0 -1 -1 0 59.498 51.362)"/></g><g filter="url(#c)"><ellipse cx="4.618" cy="21.501" fill="#00ff79" rx="4.618" ry="21.501" transform="rotate(68.34 8.636 77.924)scale(-1 1)"/></g><g filter="url(#d)"><ellipse cx="19.801" cy="44.78" fill="#0060ff" rx="4.618" ry="21.501" transform="rotate(-68.34 19.801 44.78)"/></g><g filter="url(#e)"><ellipse cx="46.528" cy="29.66" fill="#93fffc" rx="3.715" ry="6.268" transform="rotate(-135.197 46.528 29.66)"/></g><g filter="url(#f)"><ellipse cx="48.443" cy="26.214" fill="#0060ff" rx="3.715" ry="6.268" transform="rotate(-135.197 48.443 26.214)"/></g><g filter="url(#g)"><ellipse cx="48.059" cy="7.065" fill="#93fffc" rx="3.715" ry="6.268" transform="rotate(-135.197 48.06 7.065)"/></g><g filter="url(#h)"><ellipse cx="49.208" cy="5.534" fill="#0060ff" rx="3.715" ry="6.268" transform="rotate(-135.197 49.208 5.534)"/></g><g filter="url(#i)"><ellipse cx="3.715" cy="6.268" fill="#93fffc" rx="3.715" ry="6.268" transform="rotate(135.197 8.194 25.308)scale(-1 1)"/></g><g filter="url(#j)"><ellipse cx="3.715" cy="6.268" fill="#0060ff" rx="3.715" ry="6.268" transform="rotate(135.197 7.563 23.033)scale(-1 1)"/></g><g filter="url(#k)"><ellipse cx="3.715" cy="6.268" fill="#93fffc" rx="3.715" ry="6.268" transform="rotate(-44.803 31.72 -28.306)scale(1 -1)"/></g><g filter="url(#l)"><ellipse cx="3.715" cy="6.268" fill="#0060ff" rx="3.715" ry="6.268" transform="rotate(135.197 11.95 11.848)scale(-1 1)"/></g><g filter="url(#m)"><ellipse cx="3.715" cy="11.949" fill="#0060ff" rx="3.715" ry="11.949" transform="rotate(135.197 8.702 20.814)scale(-1 1)"/></g><g filter="url(#n)"><ellipse cx="53.595" cy="15.29" fill="#00ff79" rx="3.715" ry="11.949" transform="rotate(-135.197 53.595 15.29)"/></g><g filter="url(#o)"><ellipse cx="4.618" cy="21.501" fill="#0060ff" rx="4.618" ry="21.501" transform="matrix(0 -1 -1 0 59.498 53.277)"/></g></g><path fill="#fff" d="M6.919 0c-9.198 13.166-9.252 33.575 0 46.789h6.215c-9.25-13.214-9.196-33.623 0-46.789zM69.34 0h-6.214c9.198 13.167 9.252 33.575 0 46.789h6.215c9.25-13.214 9.196-33.622 0-46.789"/><defs><filter id="b" width="61.384" height="27.618" x="7.306" y="32.935" color-interpolation-filters="sRGB" filterUnits="userSpaceOnUse"><feFlood flood-opacity="0" result="BackgroundImageFix"/><feBlend in="SourceGraphic" in2="BackgroundImageFix" result="shape"/><feGaussianBlur result="effect1_foregroundBlur_2002_17446" stdDeviation="4.596"/></filter><filter id="c" width="58.495" height="36.43" x="26.935" y="26.565" color-interpolation-filters="sRGB" filterUnits="userSpaceOnUse"><feFlood flood-opacity="0" result="BackgroundImageFix"/><feBlend in="SourceGraphic" in2="BackgroundImageFix" result="shape"/><feGaussianBlur result="effect1_foregroundBlur_2002_17446" stdDeviation="4.596"/></filter><filter id="d" width="58.495" height="36.43" x="-9.446" y="26.565" color-interpolation-filters="sRGB" filterUnits="userSpaceOnUse"><feFlood flood-opacity="0" result="BackgroundImageFix"/><feBlend in="SourceGraphic" in2="BackgroundImageFix" result="shape"/><feGaussianBlur result="effect1_foregroundBlur_2002_17446" stdDeviation="4.596"/></filter><filter id="e" width="28.672" height="28.706" x="32.192" y="15.308" color-interpolation-filters="sRGB" filterUnits="userSpaceOnUse"><feFlood flood-opacity="0" result="BackgroundImageFix"/><feBlend in="SourceGraphic" in2="BackgroundImageFix" result="shape"/><feGaussianBlur result="effect1_foregroundBlur_2002_17446" stdDeviation="4.596"/></filter><filter id="f" width="28.672" height="28.706" x="34.107" y="11.861" color-interpolation-filters="sRGB" filterUnits="userSpaceOnUse"><feFlood flood-opacity="0" result="BackgroundImageFix"/><feBlend in="SourceGraphic" in2="BackgroundImageFix" result="shape"/><feGaussianBlur result="effect1_foregroundBlur_2002_17446" stdDeviation="4.596"/></filter><filter id="g" width="28.672" height="28.706" x="33.723" y="-7.287" color-interpolation-filters="sRGB" filterUnits="userSpaceOnUse"><feFlood flood-opacity="0" result="BackgroundImageFix"/><feBlend in="SourceGraphic" in2="BackgroundImageFix" result="shape"/><feGaussianBlur result="effect1_foregroundBlur_2002_17446" stdDeviation="4.596"/></filter><filter id="h" width="28.672" height="28.706" x="34.872" y="-8.819" color-interpolation-filters="sRGB" filterUnits="userSpaceOnUse"><feFlood flood-opacity="0" result="BackgroundImageFix"/><feBlend in="SourceGraphic" in2="BackgroundImageFix" result="shape"/><feGaussianBlur result="effect1_foregroundBlur_2002_17446" stdDeviation="4.596"/></filter><filter id="i" width="28.672" height="28.706" x="15.724" y="16.073" color-interpolation-filters="sRGB" filterUnits="userSpaceOnUse"><feFlood flood-opacity="0" result="BackgroundImageFix"/><feBlend in="SourceGraphic" in2="BackgroundImageFix" result="shape"/><feGaussianBlur result="effect1_foregroundBlur_2002_17446" stdDeviation="4.596"/></filter><filter id="j" width="28.672" height="28.706" x="13.043" y="12.627" color-interpolation-filters="sRGB" filterUnits="userSpaceOnUse"><feFlood flood-opacity="0" result="BackgroundImageFix"/><feBlend in="SourceGraphic" in2="BackgroundImageFix" result="shape"/><feGaussianBlur result="effect1_foregroundBlur_2002_17446" stdDeviation="4.596"/></filter><filter id="k" width="28.672" height="28.706" x="13.043" y="-7.287" color-interpolation-filters="sRGB" filterUnits="userSpaceOnUse"><feFlood flood-opacity="0" result="BackgroundImageFix"/><feBlend in="SourceGraphic" in2="BackgroundImageFix" result="shape"/><feGaussianBlur result="effect1_foregroundBlur_2002_17446" stdDeviation="4.596"/></filter><filter id="l" width="28.672" height="28.706" x="12.661" y="-9.585" color-interpolation-filters="sRGB" filterUnits="userSpaceOnUse"><feFlood flood-opacity="0" result="BackgroundImageFix"/><feBlend in="SourceGraphic" in2="BackgroundImageFix" result="shape"/><feGaussianBlur result="effect1_foregroundBlur_2002_17446" stdDeviation="4.596"/></filter><filter id="m" width="36.034" height="36.133" x="5.742" y=".287" color-interpolation-filters="sRGB" filterUnits="userSpaceOnUse"><feFlood flood-opacity="0" result="BackgroundImageFix"/><feBlend in="SourceGraphic" in2="BackgroundImageFix" result="shape"/><feGaussianBlur result="effect1_foregroundBlur_2002_17446" stdDeviation="4.596"/></filter><filter id="n" width="36.034" height="36.133" x="35.578" y="-2.777" color-interpolation-filters="sRGB" filterUnits="userSpaceOnUse"><feFlood flood-opacity="0" result="BackgroundImageFix"/><feBlend in="SourceGraphic" in2="BackgroundImageFix" result="shape"/><feGaussianBlur result="effect1_foregroundBlur_2002_17446" stdDeviation="4.596"/></filter><filter id="o" width="61.384" height="27.618" x="7.306" y="34.85" color-interpolation-filters="sRGB" filterUnits="userSpaceOnUse"><feFlood flood-opacity="0" result="BackgroundImageFix"/><feBlend in="SourceGraphic" in2="BackgroundImageFix" result="shape"/><feGaussianBlur result="effect1_foregroundBlur_2002_17446" stdDeviation="4.596"/></filter></defs></svg>
